findly-builder/apps/searchassist/src/assets/images/icons/Transfer_to_live_agent_white.svg

<?xml version="1.0" encoding="UTF-8"?>
<svg width="16px" height="16px" viewBox="0 0 16 16" version="1.1" xmlns="http://www.w3.org/2000/svg" xmlns:xlink="http://www.w3.org/1999/xlink">
    <title>Icon / 16x16 / Banking Bot / Agent Transfer Copy</title>
    <g id="Page-1" stroke="none" stroke-width="1" fill="none" fill-rule="evenodd">
        <g id="icons" transform="translate(-60.000000, -41.000000)">
            <g id="Icon-/-16x16-/-Banking-Bot-/-Agent-Transfer-Copy" transform="translate(60.000000, 41.000000)">
                <g id="Agent-Transfer">
                    <rect id="agent-transfer" fill-opacity="0" fill="#D8D8D8" x="0" y="0" width="16" height="16"></rect>
                    <path d="M8,2.5 C9.50068425,2.5 10.8609969,3.10101782 11.8533456,4.07549428 C12.8475077,5.05175145 13.4724352,6.40280998 13.4990296,7.89109795 L13.4990296,7.89109795 L13.5,12.2580509 C13.5,12.5917106 13.3684371,12.8946503 13.1543225,13.1177838 C12.9412796,13.3398006 12.646564,13.482962 12.3183855,13.4985704 L12.3183855,13.4985704 L11.649758,13.5 C11.3160983,13.5 11.0131587,13.3684371 10.7900251,13.1543225 C10.5680792,12.9413475 10.4249383,12.646752 10.4092535,12.3186995 L10.4092535,12.3186995 L10.4078089,10.4331719 C10.4078089,10.0995122 10.5393719,9.79657261 10.7534864,9.57343907 C10.966484,9.35146961 11.2611194,9.20832186 11.5892139,9.19266244 L11.5892139,9.19266244 L13.4488021,9.19038946 L13.4492739,8 C13.4492739,6.49522458 12.8393432,5.13290613 11.8532185,4.14678152 C10.8670939,3.16065692 9.50477545,2.55072617 8,2.55072617 C6.51584904,2.55072617 5.17028261,3.14405907 4.18754244,4.10644491 C3.20265751,5.07093109 2.58227022,6.40610999 2.55178914,7.89532678 L2.55178914,7.89532678 L2.54887384,9.19091412 L4.35024207,9.19122286 C4.68390177,9.19122286 4.98684139,9.32278578 5.20997494,9.53690037 C5.43192085,9.74987533 5.57506177,10.0444708 5.59074658,10.3725234 L5.59074658,10.3725234 L5.59219115,12.2580509 C5.59219115,12.5917106 5.46062823,12.8946502 5.24651364,13.1177838 C5.0334707,13.3398005 4.73875512,13.482962 4.41057653,13.4985704 L4.41057653,13.4985704 L3.74194908,13.5 C3.40828938,13.5 3.10534975,13.3684371 2.88221621,13.1543225 C2.66029253,12.9413689 2.51715805,12.646811 2.50144929,12.3187981 L2.50144929,12.3187981 L2.5,8 C2.5,6.48121693 3.11560848,5.10621693 4.11091272,4.1109127 C5.10621695,3.11560847 6.48121695,2.5 8,2.5 Z M13.449607,9.24185588 L11.6497321,9.24194904 C11.3281164,9.24194903 11.0362288,9.36852077 10.8198684,9.58488115 C10.6157996,9.78894996 10.4768049,10.0759472 10.4585351,10.4184086 L10.4585351,12.2580509 C10.4585351,12.5796925 10.5851068,12.8715802 10.8014672,13.0879406 C11.005536,13.2920094 11.2925333,13.431004 11.6349947,13.4492738 L12.258051,13.4492738 C12.5796926,13.4492738 12.8715803,13.3227021 13.0879406,13.1063417 C13.2920034,12.902279 13.4309958,12.6152927 13.4492723,12.2728448 L13.449607,9.24185588 Z M4.3650197,9.2419498 L2.55072617,9.24185588 L2.55072617,12.2580509 C2.55072617,12.5796925 2.6772979,12.8715802 2.89365829,13.0879406 C3.09772709,13.2920094 3.38472433,13.431004 3.72718577,13.4492738 L4.35024207,13.4492738 C4.67188367,13.4492738 4.96377132,13.3227021 5.1801317,13.1063417 C5.3842005,12.9022729 5.52319518,12.6152757 5.54146498,12.2728142 L5.54146498,10.4331719 C5.54146498,10.1115303 5.41489324,9.81964269 5.19853286,9.60328231 C4.9944669,9.39921635 4.70747481,9.2602227 4.3650197,9.2419498 Z" id="agent-transfer" stroke="#F2F3F5" fill="#26344A"></path>
                </g>
            </g>
        </g>
    </g>
</svg>

<svg width="16" height="16" xmlns="http://www.w3.org/2000/svg"><g fill="none" fill-rule="evenodd"><path d="M0 0h16v16H0z"/><path d="M8 2.5c1.5 0 2.861.601 3.853 1.575A5.478 5.478 0 0 1 13.5 7.891l.001 4.367a1.238 1.238 0 0 1-1.182 1.24l-.668.002a1.238 1.238 0 0 1-1.24-1.181l-.002-1.886a1.238 1.238 0 0 1 1.181-1.24l1.86-.003V8c0-1.505-.61-2.867-1.596-3.853A5.432 5.432 0 0 0 8 2.55a5.43 5.43 0 0 0-3.812 1.555 5.438 5.438 0 0 0-1.636 3.79L2.549 9.19H4.35a1.238 1.238 0 0 1 1.24 1.182l.002 1.885a1.238 1.238 0 0 1-1.181 1.24l-.67.002a1.238 1.238 0 0 1-1.24-1.181L2.5 8a5.49 5.49 0 0 1 1.61-3.89A5.483 5.483 0 0 1 8 2.5Zm5.45 6.742h-1.8c-.322 0-.614.127-.83.343a1.26 1.26 0 0 0-.361.833v1.84c0 .322.126.614.342.83.205.204.492.343.834.361h.623c.322 0 .614-.126.83-.343a1.26 1.26 0 0 0 .361-.833V9.242Zm-9.085 0H2.551v3.016c0 .322.126.614.343.83.204.204.49.343.833.361h.623c.322 0 .614-.126.83-.343a1.26 1.26 0 0 0 .361-.833v-1.84c0-.321-.126-.613-.342-.83a1.26 1.26 0 0 0-.834-.361Z" stroke="#F2F3F5" fill="#26344A"/></g></svg>
